src/lib/packages/icons/src/assets/filled/ethereum.svg

<svg width="24" height="24" viewBox="0 0 24 24" fill="none" xmlns="http://www.w3.org/2000/svg">
<path d="M12 14.2199L7.95999 12.87L12 10.8499L16.04 12.87L12 14.2199ZM12 15.76C11.92 15.76 11.84 15.7499 11.76 15.7199L7.579 14.326C7.305 14.235 7.073 14.5449 7.238 14.7819L11.33 20.649C11.65 21.119 12.35 21.119 12.67 20.649L16.762 14.7819C16.927 14.5449 16.695 14.235 16.421 14.326L12.24 15.7199C12.16 15.7499 12.08 15.76 12 15.76ZM12.34 9.33992L16.499 11.4189C16.762 11.5509 17.038 11.2639 16.896 11.0059L12.72 3.4189C12.41 2.8589 11.59 2.8589 11.28 3.4189L7.104 11.0059C6.962 11.2639 7.238 11.5509 7.501 11.4189L11.66 9.33992C11.88 9.23992 12.12 9.23992 12.34 9.33992Z" fill="currentColor"/>
</svg>

<svg xmlns="http://www.w3.org/2000/svg" width="24" height="24" fill="none"><path fill="currentColor" d="m12 14.22-4.04-1.35L12 10.85l4.04 2.02L12 14.22Zm0 1.54c-.08 0-.16-.01-.24-.04l-4.181-1.394a.3.3 0 0 0-.341.456l4.092 5.867c.32.47 1.02.47 1.34 0l4.092-5.867a.3.3 0 0 0-.341-.456L12.24 15.72c-.08.03-.16.04-.24.04Zm.34-6.42 4.159 2.079c.263.132.539-.155.397-.413L12.72 3.419a.827.827 0 0 0-1.44 0l-4.176 7.587c-.142.258.134.545.397.413l4.159-2.08c.22-.1.46-.1.68 0Z"/></svg>
